icons/discussion-closed-16.svg

<svg width="17" height="16" viewBox="0 0 17 16" fill="none" xmlns="http://www.w3.org/2000/svg">
<path d="M3 3.80469C3 3.66662 3.11193 3.55469 3.25 3.55469H11.75C11.8881 3.55469 12 3.66662 12 3.80469V7.25C12 7.66421 12.3358 8 12.75 8C13.1642 8 13.5 7.66421 13.5 7.25V3.80469C13.5 2.83819 12.7165 2.05469 11.75 2.05469H3.25C2.2835 2.05469 1.5 2.83819 1.5 3.80469V9.53906C1.5 10.5056 2.2835 11.2891 3.25 11.2891H3.5V12.9186C3.5 13.7273 4.15553 14.3828 4.96417 14.3828C5.34033 14.3828 5.70206 14.238 5.97436 13.9785L7.01745 12.9843C7.31729 12.6985 7.32868 12.2238 7.0429 11.924C6.75712 11.6241 6.28238 11.6127 5.98255 11.8985L5 12.835V10.5391C5 10.1248 4.66421 9.78906 4.25 9.78906H3.25C3.11193 9.78906 3 9.67713 3 9.53906V3.80469Z" fill="black"/>
<path d="M15.2803 10.0303C15.5732 9.73744 15.5732 9.26256 15.2803 8.96967C14.9874 8.67678 14.5126 8.67678 14.2197 8.96967L11.25 11.9393L9.78033 10.4697C9.48744 10.1768 9.01256 10.1768 8.71967 10.4697C8.42678 10.7626 8.42678 11.2374 8.71967 11.5303L10.7197 13.5303C11.0126 13.8232 11.4874 13.8232 11.7803 13.5303L15.2803 10.0303Z" fill="black"/>
</svg>

<svg xmlns="http://www.w3.org/2000/svg" width="17" height="16" viewBox="0 0 17 16"><path d="M3 3.805a.25.25 0 0 1 .25-.25h8.5a.25.25 0 0 1 .25.25V7.25a.75.75 0 0 0 1.5 0V3.805a1.75 1.75 0 0 0-1.75-1.75h-8.5a1.75 1.75 0 0 0-1.75 1.75v5.734c0 .967.784 1.75 1.75 1.75h.25v1.63a1.465 1.465 0 0 0 2.474 1.06l1.043-.995a.75.75 0 1 0-1.034-1.085L5 12.835v-2.296a.75.75 0 0 0-.75-.75h-1a.25.25 0 0 1-.25-.25V3.805Z"/><path d="M15.28 10.03a.749.749 0 1 0-1.06-1.06l-2.97 2.969-1.47-1.469a.749.749 0 1 0-1.06 1.06l2 2a.749.749 0 0 0 1.06 0l3.5-3.5Z"/></svg>
